X:195 
T:Slide John B*, The  
B:CRE5.082 (gan ainm)
F:file ID: cre.5/195slide
N:This tune got to Breathnach from a fiddler named Sean B.O'Leary 
(the "John B." of my title - I couldn't resist).
M:12/8
Q:180
R:slide
K:D
f|a2a fef d2A d2e|edB e2e fed f2g|
a2a fef d2A d2A|B2A ABc d3 d2:|
f|edB e2e fed f2f|gfe g2e fed f2g|
aba fef d2A d2A|B2A ABc d3 d2:|

%%%

